_includes/icons/ios-heart-with-pulse.svg

<svg fill="#666" height="50" viewBox="0 0 50 50" width="50" xmlns="http://www.w3.org/2000/svg"><path d="m14.130859 4c-7.7919996 0-14.130859 6.367359-14.130859 14.193359 0 1.326.12751563 2.591641.35351562 3.806641h2.04687498c-.256-1.213-.4003906-2.478641-.4003906-3.806641 0-6.723 5.4408594-12.193359 12.130859-12.193359 3.69 0 6.818828 1.5625781 9.298829 4.642578.192.24.759765.970703.759765.970703.379.488 1.201078.488 1.580078 0 0-.001.564766-.72775.759766-.96875 2.444-3.0389997 5.673844-4.644531 9.339844-4.644531 6.69 0 12.130859 5.470359 12.130859 12.193359 0 11.599-10.541281 18.688282-18.238281 23.863282-1.806 1.214-3.439625 2.538578-4.765625 3.642578-1.059-.87-3.194766-2.592532-4.759766-3.644531-5.24-3.524001-11.7962186-7.936688-15.4492186-14.054688h-2.3183594c3.719 7.011 10.931344 11.868797 16.652344 15.716797 2.024 1.36 5.204328 4.021828 5.236328 4.048828.172.145.393187.212891.617187.212891.259 0 .521657-.090813.722657-.257813 1.333-1.116 3.159687-2.645906 5.179687-4.003906 8.071-5.428 19.123047-12.859438 19.123047-25.523438 0-7.826-6.338859-14.193359-14.130859-14.193359-4.289 0-8.054625 1.8608594-10.890625 5.3808594-2.835-3.52-6.586657-5.3808594-10.847657-5.3808594zm3.359375 7a1.0001 1.0001 0 0 0 -.96875.798828l-2.800781 13.607422-1.785156-4.757812a1.0001 1.0001 0 0 0 -1.830078-.095704l-1.7226565 3.447266h-6.3828125a1.0001 1.0001 0 1 0 0 2h7a1.0001 1.0001 0 0 0 .8945312-.552734l.9746098-1.949219 2.195312 5.853515a1.0001 1.0001 0 0 0 1.914063-.15039l2.458984-11.947266 3.078125 16.925782a1.0001 1.0001 0 0 0 1.917969.179687l4.054687-10.542969 2.076172 5.535156a1.0001 1.0001 0 0 0 1.783203.177735l2.207032-3.529297h4.716796a2 2 0 0 0 1.728516 1 2 2 0 0 0 2-2 2 2 0 0 0 -2-2 2 2 0 0 0 -1.730469 1h-5.269531a1.0001 1.0001 0 0 0 -.847656.470703l-1.427735 2.283203-2.289062-6.105468a1.0001 1.0001 0 0 0 -1.869141-.007813l-3.720703 9.671875-3.361328-18.492188a1.0001 1.0001 0 0 0 -.994141-.820312z"/></svg>

<svg xmlns="http://www.w3.org/2000/svg" viewBox="0 0 50 50" width="50" height="50" fill="#666"><path style="line-height:normal;text-indent:0;text-align:start;text-decoration-line:none;text-decoration-style:solid;text-decoration-color:#000;text-transform:none;block-progression:tb;isolation:auto;mix-blend-mode:normal" d="M 14.130859 4 C 6.3388594 4 0 10.367359 0 18.193359 C 0 19.519359 0.12751563 20.785 0.35351562 22 L 2.4003906 22 C 2.1443906 20.787 2 19.521359 2 18.193359 C 2 11.470359 7.4408594 6 14.130859 6 C 17.820859 6 20.949687 7.5625781 23.429688 10.642578 C 23.621688 10.882578 24.189453 11.613281 24.189453 11.613281 C 24.568453 12.101281 25.390531 12.101281 25.769531 11.613281 C 25.769531 11.612281 26.334297 10.885531 26.529297 10.644531 C 28.973297 7.6055313 32.203141 6 35.869141 6 C 42.559141 6 48 11.470359 48 18.193359 C 48 29.792359 37.458719 36.881641 29.761719 42.056641 C 27.955719 43.270641 26.322094 44.595219 24.996094 45.699219 C 23.937094 44.829219 21.801328 43.106687 20.236328 42.054688 C 14.996328 38.530687 8.4401094 34.118 4.7871094 28 L 2.46875 28 C 6.18775 35.011 13.400094 39.868797 19.121094 43.716797 C 21.145094 45.076797 24.325422 47.738625 24.357422 47.765625 C 24.529422 47.910625 24.750609 47.978516 24.974609 47.978516 C 25.233609 47.978516 25.496266 47.887703 25.697266 47.720703 C 27.030266 46.604703 28.856953 45.074797 30.876953 43.716797 C 38.947953 38.288797 50 30.857359 50 18.193359 C 50 10.367359 43.661141 4 35.869141 4 C 31.580141 4 27.814516 5.8608594 24.978516 9.3808594 C 22.143516 5.8608594 18.391859 4 14.130859 4 z M 17.490234 11 A 1.0001 1.0001 0 0 0 16.521484 11.798828 L 13.720703 25.40625 L 11.935547 20.648438 A 1.0001 1.0001 0 0 0 10.105469 20.552734 L 8.3828125 24 L 2 24 A 1.0001 1.0001 0 1 0 2 26 L 9 26 A 1.0001 1.0001 0 0 0 9.8945312 25.447266 L 10.869141 23.498047 L 13.064453 29.351562 A 1.0001 1.0001 0 0 0 14.978516 29.201172 L 17.4375 17.253906 L 20.515625 34.179688 A 1.0001 1.0001 0 0 0 22.433594 34.359375 L 26.488281 23.816406 L 28.564453 29.351562 A 1.0001 1.0001 0 0 0 30.347656 29.529297 L 32.554688 26 L 37.271484 26 A 2 2 0 0 0 39 27 A 2 2 0 0 0 41 25 A 2 2 0 0 0 39 23 A 2 2 0 0 0 37.269531 24 L 32 24 A 1.0001 1.0001 0 0 0 31.152344 24.470703 L 29.724609 26.753906 L 27.435547 20.648438 A 1.0001 1.0001 0 0 0 25.566406 20.640625 L 21.845703 30.3125 L 18.484375 11.820312 A 1.0001 1.0001 0 0 0 17.490234 11 z"/></svg>
